X:1
T:Title
%%score 1 2
L:1/8
Q:1/4=108
M:4/4
K:Eb
V:1 treble nm="Grand Piano, Soprano"
V:2 bass nm="Choir Pad, Dulwich, 87.87 D"
V:1
 [EG]3 [EA] [EG]2 [B,E]2 | [GB]3 [Ac] [GB]2 [EG]2 | [DF]3 [DF] [DF]2 [EG]2 | [FA]2 [EG]2 [DF]4 | %4
w: By~J.~Wesley~Ewing,~1891 * * *||||
 [EG]3 [EA] [EG]2 [B,E]2 | [GB]3 [Ac] [GB]2 [EG]2 | [EF]2 [Ec]2 [EB]2 E2 | [EG]3 [B,F] [B,E]4 | %8
w: ||||
 [Ge]3 [Ge] [Ge]2 [GB]2 | [Ac]2 [Ae]2 [Ac]2 [GB]2 | [EG]3 [EG] [Ec]2 [EB]2 | [DA]2 [EG]2 [DF]4 | %12
w: ||||
 [EG]3 [EA] [EG]2 [B,E]2 | [GB]3 [Ac] [GB]2 [EG]2 | [EF]2 [Ec]2 [EB]2 E2 | [EG]3 [B,F] [B,E]4- | %16
w: ||||
 [B,E]4 z4 |] %17
w: |
V:2
 [E,B,]3 [E,C] [E,B,]2 [E,G,]2 | [E,E]3 [E,E] [E,E]2 [E,B,]2 | [B,,B,]3 [B,,B,] [B,,B,]2 [E,B,]2 | %3
 [D,B,]2 [E,B,]2 [B,,B,]4 | [E,B,]3 [E,C] [E,B,]2 [E,G,]2 | [E,E]3 [E,E] [E,E]2 [E,B,]2 | %6
 [A,C]2 [A,,A,]2 [B,,G,]2 [C,=A,]2 | [B,,B,]3 [B,,A,] [E,G,]4 | [E,B,]3 [E,B,] [E,B,]2 [E,E]2 | %9
 [A,E]2 [A,C]2 [E,E]2 [E,E]2 | [E,B,]3 [E,B,] A,2 [G,B,]2 | [F,B,]2 [E,B,]2 [B,,B,]4 | %12
 [E,B,]3 [E,C] [E,B,]2 [E,G,]2 | [E,E]3 [E,E] [E,E]2 [E,B,]2 | [A,C]2 [A,,A,]2 [B,,G,]2 [C,=A,]2 | %15
 [B,,B,]3 [B,,A,] [E,G,]4- | [E,G,]4 z4 |] %17

